X:498
T:Yellow Haired Laddie, The
T:Brown Haired Lad, The
S:Various
Z:Nigel Gatherer
M:3/4
L:1/8
K:D
D>E | {E}F2 A2 B>c | [d3F3] [ec] [f2d2] | A2 B{cB}A GF | 
F2 [E2C2] D>E | {E}F2 A2 B>c | [dF]>c de [f2d2] |
A>B A<F E>F | [D4A,4] || d>e | [f2A2D2] gfed | c>d ec B{cB}A |
[BG]>c dB A{E}F | F2 [E2C2] D>E | {E}F2 A2 B>c | 
[dF]>c de [f2d2] | A2 [gBD]f e>f | [d6G6] | [d4F4] |]
